X:1
T:25
T:25
T:Études enfantines op. 37
T:Henry Lemoine
C:Henry Lemoine
%%score { 1 | ( 2 3 ) }
L:1/8
Q:3/4=80
M:3/4
K:F
V:1 treble nm="Piano" snm="Pno."
V:2 bass 
V:3 bass 
V:1
!p!"^Mouvement de Valse" z6 | z6 | z6 | z4 ||S!p! .!1!c2 |"_leggiero" .!5!a2 z2 .!2!e2 | %6
 .!4!g2 z2 .!3!f2 | (!>!e4 .d2) | (!>!!2!^c4 !3!d2) | (!>!!4!d4 =c2 | .G2) z2 .!3!c2 | (!>!d4 c2 | %12
 .A2) z2 .!1!c2 |"_cresc." .!5!a2 z2 .!3!e2 | .!5!g2 z2 .!4!f2 |!f! (!>!!2!^c4 !1!d2) | %16
 (!3!e4 !2!d2) |!<(! (!1!=cd e!1!f ga!<)! | !>!c'2 .b) z .e2 | (!>!g6 | .f2) z2 ||!p! .a2 | %22
 (!>!c'2 .b) z .^f2 | (g4 .^g2) | (!>!!4!a2 !2!f) z .!1!d2 | !^!!3!c4 .!2!c2 | (!1!c2 g) z .!2!c2 | %27
 (!1!c2 g) z .!2!c2 | (!^!!1!c2 de !1!fg | .a) z z2 .!3!a2 | (!>!c'2 .b) z .^f2 | (g4 .^g2) | %32
 (!>!!4!a2 !2!f) z .!1!d2 | (!2!c4 .!3!^c) z |"_cresc." (!1!d2 .!3!g) z .!2!f2 | %35
 (!>!e2 .c') z .e2 |!f! (!4!gf ef ca | f2) z2!fine! |:[K:Bb]!mf! (!3!f2 | !^!!4!g3 f ed | %40
 !^!!3!e3 d c!2!B |!<(! !3!B6!<)! | .A2) z2 .f2 |!>(! (!^!g3 f e!>)!c |!>(! !^!g3 f e!>)!c | ^c6 | %46
 .d2) z2 (!3!f2 |"_poco a poco""_cresc." !^!!4!g3 f =e!1!f | !^!!4!c'3 b ab | %49
 !^!a3 !1!g !2!^f!3!g | (!^!!1!=f3) !3!e dc |!f! !3!BA B!1!c de | !>!g2 f) z .A2 | !>!c6 | %54
 .B2 z2 ::!p! .d2 | (!>!!5!fe cA) z2 | (!>!!5!fe cA) z2 |!<(! (!3!BA B!1!c de | !1!fg a!<)!b) .f2 | %60
 (!>!!5!fe cA) z2 | (!>!!5!fe cA) z2 | (!2!BA B!3!c !1!d!2!e | !>!=e4 .f) z | %64
"_poco a poco""_cresc." (!^!!4!g3 f =e!1!f | !^!!4!c'3 b ab | !^!a3 !1!g !2!^f!3!g | %67
 !^!!1!=f3) (!3!e dc |!f! !3!BA B!1!c de | gf !2!d!3!e !2!cA | !>!!3!c6 | .B2) z2!D.S.! |] %72
V:2
 .!3![F,A,]2 z2 .[A,C]2 | .[F,A,]2 z2 .[A,C]2 | .!3![F,A,]2 z2 .[A,C]2 | .!3![F,A,]2 z2 || z2 | %5
 .F,2 .[A,C]2 .[A,C]2 | .F,2 .[A,C]2 .[A,C]2 | .F,2 .[B,D]2 .[B,D]2 | .F,2 .[B,D]2 .[B,D]2 | %9
 .E,2 .[B,C]2 .[B,C]2 | .E,2 .[B,C]2 .[B,C]2 | .F,2 .[A,C]2 .[A,C]2 | .F,2 .[A,C]2 .[A,C]2 | %13
 .F,2 .[A,C]2 .[A,C]2 | .!5!A,2 .[CF]2 .[CF]2 |[K:treble] z2 .[DF]2 .[DF]2 | z2 .[DG]2 .[DG]2 | %17
 !5!!2!!1![CFA]6 | z2 .[CGB]2 .[CGB]2 | (!>![CGB]6 | .[FA]2) z2 || z2 |[K:bass] z2 [B,C]2 [B,C]2 | %23
 z2 [B,C]2 [B,C]2 | z2 [A,C]2 [A,C]2 | z2 [A,C]2 [A,C]2 | z2 [B,C]2 [B,C]2 | z2 [B,C]2 [B,C]2 | %28
 z2 [A,C]2 [A,C]2 | z2 [A,C]2 [A,C]2 | z2 [B,C]2 [B,C]2 | z2 [B,C]2 [B,C]2 | z2 [A,C]2 [A,C]2 | %33
 z2 [A,C]2 [A,^C]2 | !3!!1![B,D]3 z z2 | !5!!2!!1![C,G,B,]6 | z2 [F,A,]2 [F,A,]2 | [F,A,]2 z2 |: %38
[K:Bb] z2 |[K:treble] z2 [DF]4 | z2 [DF]4 | z2 [EF]2 [EF]2 | [EF]2 [EF]2 z2 | z2 [EF]4 | z2 [EF]4 | %45
 z2 [DF]2 [DF]2 | [DF]2 [DF]2 z2 |[K:bass] z2 !1![F,B,]4 | z2 !1![F,B,]4 | z2 !1![G,C]4 | %50
 z2 !1![G,C]4 | z2 !3!!1![B,D]2 [B,D]2 | z2 !3!!1![CE]2 [CE]2 | (!>![F,A,E]6 | .[B,D]2) z2 :: z2 | %56
 .F,2 z2 .[EF]2 | .F,2 z2 .[EF]2 | z2 !3!!1![B,D]2 [B,D]2 | z2 !3!!1![B,D]2 [B,D]2 | %60
 .F,2 z2 .[EF]2 | .F,2 z2 .[EF]2 | z2 [DF]2 [DF]2 | z2 ([^C=E]2 [DF]) z | %64
 (!>!!5!D,2 .!3!!1![F,B,]) z z2 | (!>!!5!D,2 .!3!!1![F,B,]) z z2 | (!>!!5!E,2 .!3!!1![G,C]) z z2 | %67
 (!>!!5!E,2 .!3!!1![G,C]) z z2 | z2 !3!!1![B,D]2 [B,D]2 | z2 !3!!1![CE]2 [CE]2 | (!>![F,A,E]6 | %71
 .[B,D]2) z2 |] %72
V:3
 x6 | x6 | x6 | x4 || x2 | x6 | x6 | x6 | x6 | x6 | x6 | x6 | x6 | x6 | x6 |[K:treble] !4!B,6 | %16
 !5!B,6 | x6 | x6 | x6 | x4 || x2 |[K:bass] !5!E,6 | E,6 | !4!F,6 | F,6 | E,6 | E,6 | F,6 | F,6 | %30
 !5!E,6 | E,6 | !4!F,6 | F,6 | x6 | x6 | x6 | x4 |:[K:Bb] x2 |[K:treble] !5!B,6 | !5!B,6 | !5!C6- | %42
 C4 z2 | !5!A,6 | !5!A,6 | !5!B,6- | B,4 z2 |[K:bass] !5!D,6 | !5!D,6 | !5!E,6 | !5!E,6 | !5!F,6 | %52
 !5!F,6 | x6 | x4 :: x2 | x6 | x6 | !5!F,6 | !5!F,6 | x6 | x6 | !5!B,6 | !5!B,6 | x6 | x6 | x6 | %67
 x6 | !5!F,6 | !5!F,6 | x6 | x4 |] %72

